X: 132045
T: Moneymore Jig
N: 207
C: BB 11/05
L: 1/8
M: 6/8
R: JIG
Q: 1/4=160
K: A
E|"A"Ace aga|"D"fdf "A"ecA|"G"BA=G Bcd|"Em"ef=g "G"dB=G|
"A"AGA "F#m"c^Bc|"D"dcd "E"efg|"A"aec "E7"Bcd|"A"cBA "A"A2 :|
e|"A"aga "E"bge|"Bm"fdB "A"cBA|"G"Bd=g gfg|"G"Bd=g  bag|
"A"aga "Bm"fdB|"F#m"Acf "E7"edB|"A"cea "D"dfa|"E7"edB "A"A2 :|
